X:1
T: Christine
N:
C:Jonathan Jensen
S:
A:
O:
R:
M:3/2
K:G
I:speed 190
%W: A
% voice 1 (1 lines, 29 notes)
K:G
M:3/2
L:1/16
B8 |B2 c2 d4|d4 c2 |B2 A8 |A2 B2 c4|c4 B2 |A2 G8 |e2 f2 g4 |f4 e4 |d12 |c4 B8 |E2 F2 G4 |c4 G4 |F8 |
%W:
% voice 1 (1 lines, 29 notes)
F2 G2 A4 |d4 A4 |G8 |e2 f2 g4 |a4 f4 |d4 g4 |c6 |B2 c4 |d4 e4 |c4 B2 |c2 d4 |E4 A4 |G4 F4 |G12 |A4 G8 |
%W: B
% voice 1 (1 lines, 28 notes)
z4 F4 |F2 E2 D4 |F4 G4 |A6 |B2 A2 G2 |F4 A4 |B4 c6 |d2 c2 B2 |A4 B2 |A2 G4 |A4 B4 |c4 d4 |e4 f4 |
%W:
% voice 1 (1 lines, 24 notes)
g2 a2 b4 |b4 g4 |f4 b4 |g4 e4 |d4 g4 |e4 d2 |c2 B2 c2 |d4 E4 |A4 G4 |F4 G12 |A4 G8 |
%W:
% voice 1 (1 lines, 28 notes)
z4 F4 |F2 E2 D4 |F4 G4 |A6 |B2 A2 G2 |F4 A4 |B4 c6 |d2 c2 B2 |A4 B2 |A2 G4 |A4 B4 |c4 d4 |e4 f4 |
%W:
% voice 1 (1 lines, 24 notes)
g2 a2 b4 |b4 g4 |f4 b4 |g4 e4 |d4 g4 |e4 d2 |c2 B2 c2 |d4 E4 |A4 G4 |F4 G12 |A4 G8 ||
